X:23
T:gofid glas
R:rond
H:yn d ar ol ifor ceri, 1820
O:traditional welsh
Z:crm
M:2/4
L:1/8
Q:1/8=180
K:D
f/g/|a>fef|dBAF|F/D/FG/A/B/c/|d3
f/g/|afe>f|dBAF|F/G/AB>c|d3d||
defa|gfef|d>efa|gfef|gfed|dBBA|dddB|cdef/g/|afef|dBAF|FABc|d3:||
